X:11
T:Friggin' Reel (ornamented)
R:Reel
O:New Zealand
M:C
I:speed 450
C:Mark Fitzsimons
A:Auckland
K:E Phryg
|:EBAF EcBF|EDCD E2{F}E2|EcBF EBAF|EDCA, B,2 {C}B,2|
EBAF EcBF|EDCD E2{F}E2|EcBF EBAF|EDCB, C/2-A,/2D A,2||
|:B,DFB, DFB,D|FDEF F/2-E/2AE2|B,DFB, DFB,D|EB,DF {F}E2{G}E2|
B,DFA, DFG,D|FAGF G/2-F/2AG2|BEEA DDGC| CFB,D E2{F}E2||
W:
W:
W:Copyright Mark Fitzsimons February 1998
W:mark@greenmanhumming.com
